static/images/drake/drake-browser.svg

<svg height="250" viewBox="0 0 400 250" width="400" xmlns="http://www.w3.org/2000/svg" xmlns:xlink="http://www.w3.org/1999/xlink"><defs><path id="a" d="m.5.5h132v58h-132z"/><mask id="b" fill="#fff"><use fill="#fff" fill-rule="evenodd" xlink:href="#a"/></mask></defs><g fill="none" fill-rule="evenodd" transform="translate(112 116)"><path d="m139.971215 110.441923c20.804126-1.719666 36.1137-7.543468 36.1137-14.4631996 0-8.2725205-21.880656-14.9787234-48.871812-14.9787234-20.056678 0-37.2914762 3.7029828-44.8234262 9-23.3672011 0-46.1022177 0-47.4302463 0-19.3075603 0-34.9594305 4.7010101-34.9594305 10.5 0 5.79899 15.6518702 10.5 34.9594305 10.5h93.2802085c4.080253 0 8.023426-.199541 11.731576-.558077z" fill="#e1e2e2" fill-opacity=".278051"/><path d="m145.302232 101.518657c4.672191-1.475429 7.549496-3.4896059 7.549496-5.7101464 0-4.5240346-11.943191-8.1914893-26.675864-8.1914893-12.844287 0-23.568357 2.7875437-26.106487 6.5-21.8747716 0-52.5362268 0-53.8935129 0-14.7326729 0-26.6758641 2.5481666-26.6758641 5.6914893 0 3.1433224 11.9431912 5.6914894 26.6758641 5.6914894h71.1776519c12.848254 0 23.915229-1.841929 27.948716-3.981343z" fill="#e1e2e2"/><g transform="translate(74)"><path d="m52.1349527 100.408266c10.0156578 0 18.1349527-2.4248546 18.1349527-5.4160637 0-.5627926 7.0015804-32.3027993 2.995721-60.152361-4.0058593-27.84956169-16.3586632-36.34679163-34.910157-34.35644285-11.0683599 1.18749988-25.6777207 9.30669955-26.0644538 15.01855375-.8461007 12.4964854 24.2592355 21.457637 26.0644537 19.3378899 11.4003902-13.3867163 11.673827.7460974 8.1679678 26.6601601-3.5058592 25.9140626-12.5234371 32.7455099-12.5234371 33.4922001 0 2.9912091 8.1192949 5.4160637 18.1349527 5.4160637z" fill="#9ebec9"/><path d="m1.1875 53.2822281c3.02734378 2.602539 12.9156233 6.0947265 16.3720709 4.8486328 3.4564476-1.2460938 21.6445312-21.3251972 21.6445312-28.3251972s2.053711-13.2919918-6.8603515-15.7919918-10.7431641-2.7851563-14.7841797-1.5527343c-4.0410156 1.2324219-7.1953131 1.9824215-8.98828196 7.9980465-1.79296885 6.015625-10.41113272 30.2207049-7.38378894 32.823244z" fill="#9ebec9"/><ellipse cx="10.829266" cy="32.374234" fill="#6c93a0" rx="1.250686" ry="2.291411"/><ellipse cx="22.752606" cy="34.441067" fill="#6c93a0" rx="1.250686" ry="2.291411" transform="matrix(.95105652 .30901699 -.30901699 .95105652 11.833127 -5.412109)"/><g fill="#7ba6b4"><path d="m6.54415838 51.5155017c.57561252 0 1.04223866-.4663181 1.04223866-1.0415507 0-.5752325-.46662614-1.0415506-1.04223866-1.0415506s-1.04223867.4663181-1.04223867 1.0415506c0 .5752326.46662615 1.0415507 1.04223867 1.0415507z"/><path d="m14.5441584 53.5155017c.5756125 0 1.0422386-.4663181 1.0422386-1.0415507 0-.5752325-.4666261-1.0415506-1.0422386-1.0415506s-1.0422387.4663181-1.0422387 1.0415506c0 .5752326.4666262 1.0415507 1.0422387 1.0415507z"/><path d="m38.7442682 98.6446997c1.3175105.4305847 21.2117858-29.2297086 17.2059265-57.0792703-1.8217745-12.6653523-3.5390629-19.6005856-9.4267577-19.6005856-2.2109999 0-7.7791684 10.040039-7.7791684 10.040039s-12.5209891 17.8989167-11.3936827 16.575196c6.6593493-7.8196288 15.4329668-22.7468267 19.1728518-18.6484381 2.6625647 2.9177967 1.457969 20.7915697-.0000006 31.5683615-3.5058592 25.9140626-12.5234371 32.7455099-12.5234371 33.4922001 0 1.4074124 1.7974943 2.6894421 4.7442682 3.6524974z"/><path d="m29.4817734 26.9589645 4.4906462-2.9162598c1.5259495-.9909632 1.7121528-2.8382664.4249113-4.1171117l-2.4502824-2.4342999z"/><path d="m8.87108723 23.0472671-1.4758952-5.1470583c-.50151834-1.7490022.56989216-3.2653401 2.38038369-3.3859904l3.44629608-.2296596z"/></g></g><g transform="translate(17 42)"><use xlink:href="#a"/><g mask="url(#b)"><g transform="matrix(.83867057 .54463904 -.54463904 .83867057 42.079713 5.640561)"><path d="m1 1h98v77h-98z" fill="#fff" stroke="#d2dee6" stroke-width="3"/><path d="m1 1h98v10h-98z" fill="#d2dee6"/><g fill="#f4f8fa"><path d="m18 4h78v4h-78z"/><path d="m6.02026367 4h-1.02661133l-.99365234 1.15844727v1.68286132l.99365234 1.15869141h.95947266v-1.12353516h2.046875v-1.80322265h-2.046875z"/><path d="m13.0202637 4h-1.0266114l-.9936523 1.15844727v1.68286132l.9936523 1.15869141h.9594727v-1.12353516h2.046875v-1.80322265h-2.046875z" transform="matrix(-1 0 0 -1 26 12)"/></g></g></g></g></g></svg>

<?xml version="1.0" encoding="UTF-8" standalone="no"?>
<svg width="400px" height="250px" viewBox="0 0 400 250" version="1.1" xmlns="http://www.w3.org/2000/svg" xmlns:xlink="http://www.w3.org/1999/xlink" xmlns:sketch="http://www.bohemiancoding.com/sketch/ns">
    <!-- Generator: Sketch 3.2.2 (9983) - http://www.bohemiancoding.com/sketch -->
    <title>drake-browser</title>
    <desc>Created with Sketch.</desc>
    <defs>
        <rect id="path-1" x="0.5" y="0.5" width="132" height="58"></rect>
    </defs>
    <g id="Page-1" stroke="none" stroke-width="1" fill="none" fill-rule="evenodd" sketch:type="MSPage">
        <g id="drake-browser" sketch:type="MSArtboardGroup">
            <g id="Group" sketch:type="MSLayerGroup" transform="translate(112.000000, 116.000000)">
                <path d="M139.971215,110.441923 C160.775341,108.722257 176.084915,102.898455 176.084915,95.9787234 C176.084915,87.7062029 154.204259,81 127.213103,81 C107.156425,81 89.9216268,84.7029828 82.3896768,90 C59.0224757,90 36.2874591,90 34.9594305,90 C15.6518702,90 0,94.7010101 0,100.5 C0,106.29899 15.6518702,111 34.9594305,111 C37.3051511,111 107.002717,111 128.239639,111 C132.319892,111 136.263065,110.800459 139.971215,110.441923 Z" id="Oval-34" fill-opacity="0.278051404" fill="#E1E2E2" sketch:type="MSShapeGroup"></path>
                <path d="M145.302232,101.518657 C149.974423,100.043228 152.851728,98.0290511 152.851728,95.8085106 C152.851728,91.284476 140.908537,87.6170213 126.175864,87.6170213 C113.331577,87.6170213 102.607507,90.404565 100.069377,94.1170213 C78.1946054,94.1170213 47.5331502,94.1170213 46.1758641,94.1170213 C31.4431912,94.1170213 19.5,96.6651879 19.5,99.8085106 C19.5,102.951833 31.4431912,105.5 46.1758641,105.5 C47.9657709,105.5 101.14864,105.5 117.353516,105.5 C130.20177,105.5 141.268745,103.658071 145.302232,101.518657 Z" id="Oval-18" fill="#E1E2E2" sketch:type="MSShapeGroup"></path>
                <g transform="translate(74.000000, 0.000000)" sketch:type="MSShapeGroup">
                    <path d="M52.1349527,100.408266 C62.1506105,100.408266 70.2699054,97.9834114 70.2699054,94.9922023 C70.2699054,94.4294097 77.2714858,62.689403 73.2656264,34.8398413 C69.2597671,6.99027961 56.9069632,-1.50695033 38.3554694,0.483398447 C27.2871095,1.67089833 12.6777487,9.790098 12.2910156,15.5019522 C11.4449149,27.9984376 36.5502511,36.9595892 38.3554693,34.8398421 C49.7558595,21.4531258 50.0292963,35.5859395 46.5234371,61.5000022 C43.0175779,87.4140648 34,94.2455121 34,94.9922023 C34,97.9834114 42.1192949,100.408266 52.1349527,100.408266 Z" id="Oval-20" fill="#9EBEC9"></path>
                    <path d="M1.1875,53.2822281 C4.21484378,55.8847671 14.1031233,59.3769546 17.5595709,58.1308609 C21.0160185,56.8847671 39.2041021,36.8056637 39.2041021,29.8056637 C39.2041021,22.8056637 41.2578131,16.5136719 32.3437506,14.0136719 C23.4296881,11.5136719 21.6005865,11.2285156 17.5595709,12.4609376 C13.5185553,13.6933595 10.3642578,14.4433591 8.57128894,20.4589841 C6.77832009,26.4746091 -1.83984378,50.679689 1.1875,53.2822281 Z" id="Path-88" fill="#9EBEC9"></path>
                    <ellipse id="Oval-22" fill="#6C93A0" cx="10.8292658" cy="32.3742342" rx="1.25068639" ry="2.29141138"></ellipse>
                    <ellipse id="Oval-23" fill="#6C93A0" transform="translate(23.001920, 34.649656) rotate(18.000000) translate(-23.001920, -34.649656) " cx="22.7526061" cy="34.4410672" rx="1.25068639" ry="2.29141138"></ellipse>
                    <path d="M6.54415838,51.5155017 C7.1197709,51.5155017 7.58639704,51.0491836 7.58639704,50.473951 C7.58639704,49.8987185 7.1197709,49.4324004 6.54415838,49.4324004 C5.96854586,49.4324004 5.50191971,49.8987185 5.50191971,50.473951 C5.50191971,51.0491836 5.96854586,51.5155017 6.54415838,51.5155017 Z" id="Oval-27" fill="#7BA6B4"></path>
                    <path d="M14.5441584,53.5155017 C15.1197709,53.5155017 15.586397,53.0491836 15.586397,52.473951 C15.586397,51.8987185 15.1197709,51.4324004 14.5441584,51.4324004 C13.9685459,51.4324004 13.5019197,51.8987185 13.5019197,52.473951 C13.5019197,53.0491836 13.9685459,53.5155017 14.5441584,53.5155017 Z" id="Oval-28" fill="#7BA6B4"></path>
                    <path d="M38.7442682,98.6446997 C40.0617787,99.0752844 59.956054,69.4149911 55.9501947,41.5654294 C54.1284202,28.9000771 52.4111318,21.9648438 46.523437,21.9648438 C44.3124371,21.9648438 38.7442686,32.0048828 38.7442686,32.0048828 C38.7442686,32.0048828 26.2232795,49.9037995 27.3505859,48.5800788 C34.0099352,40.76045 42.7835527,25.8332521 46.5234377,29.9316407 C49.1860024,32.8494374 47.9814067,50.7232104 46.5234371,61.5000022 C43.0175779,87.4140648 34,94.2455121 34,94.9922023 C34,96.3996147 35.7974943,97.6816444 38.7442682,98.6446997 Z" id="Oval-21" fill="#7BA6B4"></path>
                    <path d="M29.4817734,26.9589645 L33.9724196,24.0427047 C35.4983691,23.0517415 35.6845724,21.2044383 34.3973309,19.925593 L31.9470485,17.4912931 L29.4817734,26.9589645 Z" id="Path-6" fill="#7BA6B4"></path>
                    <path d="M8.87108723,23.0472671 L7.39519203,17.9002088 C6.89367369,16.1512066 7.96508419,14.6348687 9.77557572,14.5142184 L13.2218718,14.2845588 L8.87108723,23.0472671 Z" id="Path-7" fill="#7BA6B4"></path>
                </g>
                <g id="Mask-+-Group" transform="translate(17.000000, 42.000000)">
                    <mask id="mask-2" sketch:name="Mask" fill="white">
                        <use xlink:href="#path-1"></use>
                    </mask>
                    <use id="Mask" sketch:type="MSShapeGroup" xlink:href="#path-1"></use>
                    <g id="Group" mask="url(#mask-2)" sketch:type="MSShapeGroup">
                        <g transform="translate(62.352984, 65.308345) rotate(-327.000000) translate(-62.352984, -65.308345) translate(12.852984, 26.308345)">
                            <rect id="Rectangle-324" stroke="#D2DEE6" stroke-width="3" fill="#FFFFFF" x="1" y="1" width="98" height="77"></rect>
                            <rect id="Rectangle-325" stroke="none" fill="#D2DEE6" x="1" y="1" width="98" height="10"></rect>
                            <rect id="Rectangle-326" stroke="none" fill="#F4F8FA" x="18" y="4" width="78" height="4"></rect>
                            <path d="M6.02026367,4 L4.99365234,4 L4,5.15844727 L4,6.84130859 L4.99365234,8 L5.953125,8 L5.953125,6.87646484 L8,6.87646484 L8,5.07324219 L5.953125,5.07324219 L6.02026367,4 Z" id="Rectangle-326" stroke="none" fill="#F4F8FA"></path>
                            <path d="M13.0202637,4 L11.9936523,4 L11,5.15844727 L11,6.84130859 L11.9936523,8 L12.953125,8 L12.953125,6.87646484 L15,6.87646484 L15,5.07324219 L12.953125,5.07324219 L13.0202637,4 Z" id="Rectangle-327" stroke="none" fill="#F4F8FA" transform="translate(13.000000, 6.000000) rotate(-180.000000) translate(-13.000000, -6.000000) "></path>
                        </g>
                    </g>
                </g>
            </g>
        </g>
    </g>
</svg>
